svgs/sharp-solid/house-chimney.svg

<svg xmlns="http://www.w3.org/2000/svg" viewBox="0 0 576 512"><!--! Font Awesome Pro 6.6.0 by @fontawesome - https://fontawesome.com License - https://fontawesome.com/license (Commercial License) Copyright 2024 Fonticons, Inc. --><path d="M576 287.6l-64.2 0 1 224.4L472 512l-16 0-104 0 0-160-128 0 0 160-104 0-16 0-39.9 0 0-37.2c-.1-.9-.1-1.8-.1-2.8l0-112c0-.9 0-1.9 .1-2.8l0-69.7L0 287.6 0 240 288.4 0 416 106.5 416 32l96 0 0 154.6L576 240l0 47.6z"/></svg>

<svg xmlns="http://www.w3.org/2000/svg" viewBox="0 0 576 512"><!--! Font Awesome Pro 6.5.2 by @fontawesome - https://fontawesome.com License - https://fontawesome.com/license (Commercial License) Copyright 2024 Fonticons, Inc. --><path d="M576 287.6H511.8l1 224.4H472 456 352V352H224V512H120 104 64.1V474.8c-.1-.9-.1-1.8-.1-2.8V360c0-.9 0-1.9 .1-2.8V287.6H0V240L288.4 0 416 106.5V32h96V186.6L576 240v47.6z"/></svg>
